!!!SOCIAL_FUNCTION:	rain dance song
!!!PDT:	1957
!!!OTL: No_69_The_Mockingbird_Speaks.krn
!!!LING_GROUP: Keresan
!!!LANG: Tone
!!!REG: Southwest
**kern
*staff1
=1-
*clefF4
*k[f#]
*M2/4
16G\LL
16E\J
8G\J
8G\L
16E\L
16D\JJ
=2
(16D/LL
16BB/)
16BB/
16BB/JJ
8BB/
8r
=3
*M3/4
16G\LL
16E\J
8G\J
8G\L
16E\L
16D\JJ
16D\LL
16D\J
8BB\J
=4
*M2/4
8E\L
8E\J
(8E/L
8BB/J)
=5
(8BB/L
16GG/L)
16GG/JJ
8GG/
8r
=6
(16E/LK
8BB/)
16GG/Jk
16GG/LL
16GG/J
8GG/J
=7
8BB/L
16GG/L
16GG/JJ
8GG/L
16.GG/L
32GG/JJk
=8
*M3/4
8D\L
16D\L
16D\JJ
(16E\LL
16D\)
(16D\
16BB\JJ)
16D\LK
8D\
16BB\Jk
=9
*M6/8
(8D\L
8BB\)
8D\J
8D/L
8BB/
8GG/J
=10
8GG/L
8GG/
8GG/J
8BB/L
8GG/
8GG/J
=11
*M7/8
8GG/L
8GG/
8BB/
8GG/
8GG/J
8r
8GG/
=12
*M6/8
8BB/L
8BB/
8D/J
8BB/L
8GG/
16GG/L
16GG/JJ
=13
*M2/4
8.BB/L
16D/Jk
8BB/L
8BB/J
=14
(4BB/
8GG/L)
16GG/L
16GG/JJ
=15
8.BB/L
16GG/Jk
8GG/
8r
=16
*M3/4
8BB/L
8BB/J
16BB/LK
8GG/
16GG/Jk
8GG/L
8BB/J
=17
16BB/LK
(8BB/
16GG/Jk)
8GG/L
(16BB/L
16GG/JJ)
8GG/
8r
=18
8D\L
16D\L
16BB\JJ
8D\
24BB/LL
24BB/
24GG/JJ
8GG/L
8GG/J
=19
*M2/4
8BB/L
8BB/J
16BB/LK
8GG/
16GG/Jk
=20
8BB/L
16GG/L
16GG/JJ
8GG/
8r
=21
*M3/4
16BB/LK
8GG/
16GG/Jk
8GG/L
8GG/J
(16BB/LL
16GG/J)
8GG/J
=22
*M2/4
8.BB/L
16GG/Jk
8GG/
8r
=23
16GG/LK
8.GG/J
24GG/LL
24GG/
24GG/JJ
8r
=24
*k[f#c#g#d#]
8.G#\L
16G#\Jk
(8.B\L
16G#\Jk)
=25
12B\L
12A\
12G#\J
4G#\
=26
12B\L
12A\
12G#\J
8.B\L
16G#\Jk
=27
12B\L
12A\
12G#\J
8G#\
8r
=28
16G#\LK
8.E\J
8.G#\L
16E\Jk
=29
2r
=30
2r
=31
2r
=32
2r
=33
2r
=34
2r
=35
2r
==
*-
